X: 3
T: The Destitution
R: reel
M: 4/4
L: 1/8
K: Amin
A,2EA, GA,EA,|GFEF DECB,|A,2EA, GA,EA,|DCB,C DGEC|A,2EA, GA,EA,|GFEF DECB,|A,EED CEB,E|DCB,C DGEC:|EDGA eABA|EDGA Bcd2|EDGA eABA|EFED EA,A,2|EDGA eABA|EDGA Bcd2|ecdB cABG|EFED EA,A,2:|


Tune 673	Setting 27951

